svg/weight.svg

<svg xmlns="http://www.w3.org/2000/svg" viewBox="0 0 24 24"><path d="M12 3a4 4 0 0 1 4 4c0 .73-.19 1.41-.54 2H18c.95 0 1.75.67 1.95 1.56C21.96 18.57 22 18.78 22 19a2 2 0 0 1-2 2H4a2 2 0 0 1-2-2c0-.22.04-.43 2.05-8.44C4.25 9.67 5.05 9 6 9h2.54A3.9 3.9 0 0 1 8 7a4 4 0 0 1 4-4m0 2a2 2 0 0 0-2 2 2 2 0 0 0 2 2 2 2 0 0 0 2-2 2 2 0 0 0-2-2"/></svg>

<?xml version="1.0" encoding="UTF-8"?><!DOCTYPE svg PUBLIC "-//W3C//DTD SVG 1.1//EN" "http://www.w3.org/Graphics/SVG/1.1/DTD/svg11.dtd"><svg xmlns="http://www.w3.org/2000/svg" xmlns:xlink="http://www.w3.org/1999/xlink" version="1.1" id="mdi-weight" width="24" height="24" viewBox="0 0 24 24"><path d="M12,3A4,4 0 0,1 16,7C16,7.73 15.81,8.41 15.46,9H18C18.95,9 19.75,9.67 19.95,10.56C21.96,18.57 22,18.78 22,19A2,2 0 0,1 20,21H4A2,2 0 0,1 2,19C2,18.78 2.04,18.57 4.05,10.56C4.25,9.67 5.05,9 6,9H8.54C8.19,8.41 8,7.73 8,7A4,4 0 0,1 12,3M12,5A2,2 0 0,0 10,7A2,2 0 0,0 12,9A2,2 0 0,0 14,7A2,2 0 0,0 12,5Z" /></svg>
